icons/folder-cloud-functions-open.svg

<svg xmlns="http://www.w3.org/2000/svg" xmlns:xlink="http://www.w3.org/1999/xlink" xml:space="preserve" fill-rule="evenodd" stroke-linejoin="round" stroke-miterlimit="2" clip-rule="evenodd" viewBox="0 0 32 32"><defs><path id="a" fill="#bbdefb" d="m26 14 2-2 4 4-2 2z"/></defs><path fill="#2196f3" fill-rule="nonzero" d="M28.967 12H9.442c-.859 0-1.627.553-1.898 1.368L4 24V10h24c0-1.097-.903-2-2-2H15.124c-.468 0-.921-.164-1.28-.464l-1.288-1.072A2 2 0 0 0 11.276 6H4c-1.097 0-2 .903-2 2v16c0 1.097.903 2 2 2h22l4.805-11.212c.107-.249.162-.517.162-.788 0-1.097-.903-2-2-2"/><path fill="#bbdefb" d="M21.982 17.988h2.037v1.996h-2.037zm-2.983.021h2.037v1.996h-2.037zm5.998 0h1.996v1.996h-1.996zM29 14h3v10h-3z"/><use xlink:href="#a" transform="translate(0 -2)"/><use xlink:href="#a" transform="matrix(1 0 0 -1 0 40)"/><path fill="#bbdefb" d="M14 14h3v10h-3z"/><use xlink:href="#a" transform="matrix(-1 0 0 1 46 -2)"/><use xlink:href="#a" transform="rotate(180 23 20)"/></svg>

<?xml version="1.0" encoding="UTF-8" standalone="no"?>
<!DOCTYPE svg PUBLIC "-//W3C//DTD SVG 1.1//EN" "http://www.w3.org/Graphics/SVG/1.1/DTD/svg11.dtd">
<svg width="100%" height="100%" viewBox="0 0 32 32" version="1.1" xmlns="http://www.w3.org/2000/svg"
  xmlns:xlink="http://www.w3.org/1999/xlink" xml:space="preserve" xmlns:serif="http://www.serif.com/"
  style="fill-rule:evenodd;clip-rule:evenodd;stroke-linejoin:round;stroke-miterlimit:2;">
  <path
    d="M28.967,12L9.442,12C8.583,12 7.815,12.553 7.544,13.368L4,24L4,10L28,10C28,8.903 27.097,8 26,8L15.124,8C14.656,8 14.203,7.836 13.844,7.536L12.556,6.464C12.197,6.164 11.744,6 11.276,6L4,6C2.903,6 2,6.903 2,8L2,24C2,25.097 2.903,26 4,26L26,26L30.805,14.788C30.912,14.539 30.967,14.271 30.967,14C30.967,12.903 30.064,12 28.967,12"
    style="fill:rgb(33,150,243);fill-rule:nonzero;" />
  <g transform="matrix(1,0,0,1,0,-2)">
    <g transform="matrix(1,0,0,1,1.00067,0)">
      <g transform="matrix(1,0,0,1.03885,2.98203,-0.811491)">
        <rect x="17.999" y="20.021" width="2.037" height="1.922" style="fill:rgb(187,222,251);" />
      </g>
      <g transform="matrix(1,0,0,1.03885,5.32907e-15,-0.789496)">
        <rect x="17.999" y="20.021" width="2.037" height="1.922" style="fill:rgb(187,222,251);" />
      </g>
      <g transform="matrix(1,0,0,1.03885,3.55271e-15,-0.789496)">
        <rect x="23.997" y="20.021" width="1.996" height="1.922" style="fill:rgb(187,222,251);" />
      </g>
    </g>
    <g>
      <rect x="29" y="16" width="3" height="10" style="fill:rgb(187,222,251);" />
      <path d="M26,14L28,12L32,16L30,18L26,14Z" style="fill:rgb(187,222,251);" />
      <g transform="matrix(1,0,0,-1,0,42)">
        <path d="M26,14L28,12L32,16L30,18L26,14Z" style="fill:rgb(187,222,251);" />
      </g>
    </g>
    <g transform="matrix(1,0,0,1,2,0)">
      <rect x="12" y="16" width="3" height="10" style="fill:rgb(187,222,251);" />
      <g transform="matrix(-1,0,0,1,44,-1.77636e-15)">
        <path d="M26,14L28,12L32,16L30,18L26,14Z" style="fill:rgb(187,222,251);" />
      </g>
      <g transform="matrix(-1,0,0,-1,44,42)">
        <path d="M26,14L28,12L32,16L30,18L26,14Z" style="fill:rgb(187,222,251);" />
      </g>
    </g>
  </g>
</svg>
